Sources/FrostedUI/Resources/Icons.xcassets/paperAirplaneFilledUp24.imageset/paper-airplane-filled-up-24.svg

<svg width="24" height="24" viewBox="0 0 24 24" fill="none" xmlns="http://www.w3.org/2000/svg" data-fui-icon="true">
  <path
    d="M11.062 0.572433L0.107194 22.5372C-0.289104 23.3343 0.47833 24.2145 1.34641 23.9529L10.0398 20.9307C10.4455 20.8076 10.7349 20.4567 10.7695 20.0413L12.0024 9.71288L13.2353 20.0413C13.2699 20.4567 13.5593 20.8076 13.965 20.9307L22.6553 23.9529C23.5234 24.2145 24.2908 23.3374 23.8914 22.5372L12.9366 0.569357C12.7353 0.166193 12.449 0 11.9993 0C11.5495 0 11.2633 0.163115 11.062 0.569357V0.572433Z"
    fill="currentColor"
  />
</svg>

<svg xmlns="http://www.w3.org/2000/svg" width="24" height="24" fill="none" data-fui-icon="true" viewBox="0 0 24 24"><path fill="currentColor" d="M11.062.572.107 22.537c-.396.797.371 1.678 1.24 1.416l8.693-3.022c.406-.123.695-.474.73-.89l1.232-10.328 1.233 10.328c.035.416.324.767.73.89l8.69 3.022c.868.262 1.636-.616 1.236-1.416L12.937.57C12.735.166 12.449 0 11.999 0s-.736.163-.937.57z"/></svg>
